X: 1
T: Hector the Hero
C: James Scott Skinner (1843-1927)
R: air
Z: 2020 John Chambers <jc:trillian.mit.edu>
S: https://www.facebook.com/groups/Fiddletuneoftheday/ 2020-11-24
S: https://www.facebook.com/groups/Fiddletuneoftheday/photos/
M: 3/4
L: 1/8
K: D
z DE | "D"F3  E D2 | "G"B3 A F2 | "D"A6-      |     A4   DE |     F3   E D2 | "G"B3  A FD | "A"E6- | E4 \
  DE | "D"F3  E D2 | "G"B3 A F2 | "D"A2 D2 E2 | "Bm"F d3 B2 |  "D"A   D3 FG | "A"E4    D2 | "D"D6- | D3 :|
A dc | "Bm"B3 G B2 | "G"d3 c B2 | "D"A6-      |     A4   AB | "Bm"A2  D2 F2 | "G"A2 D2 FG | "A"E6- | E3 \
A dc | "Bm"B3 G B2 | "G"d3 c B2 | "D"A2 D2 E2 | "Bm"F d3 B2 |  "D"A   D3 FG | "A"E D3  C2 | "D"D6- | D3 |]
A dc | "Bm"B3 G B2 | "G"d3 c B2 | "D"A6-      |     A4   AB |  "Bm"A2 D2 F2 | "G"A2 D2 FG | "A"E6- | E4 \
  DE | "D"F3  E D2 | "G"B3 A F2 | "D"A2 D2 E2 | "Bm"F d3 B2 |   "D"A  D3 FG | "A"E4    D2 | "D"D6- | D3 |]
%
%%text https://www.youtube.com/watch?v=TCwut-wg7fE
